components/Common/Svg/svgs/prototyping.svg

<svg width="40" height="40" viewBox="0 0 40 40" fill="none" xmlns="http://www.w3.org/2000/svg">
<path d="M36.6747 5.49607H23.5629C22.777 5.49607 22.1377 6.13541 22.1377 6.92127V10.6269C20.4481 10.9555 19.2873 12.4864 19.2873 14.1185V16.5421C19.2873 16.9347 19.6073 17.2547 19.9999 17.2547C20.3925 17.2547 20.7125 16.9347 20.7125 16.5421V14.1185C20.7142 13.1918 21.3099 12.4002 22.1377 12.1048V32.5748C22.1377 33.3607 22.777 34 23.5629 34H36.6747C37.4606 34 38.0999 33.3607 38.0999 32.5748V6.92127C38.0999 6.13541 37.4606 5.49607 36.6747 5.49607ZM36.6747 32.5748H23.5629V6.92127H36.6747L36.6756 32.5747L36.6747 32.5748ZM34.5369 8.34646H25.7007C25.3072 8.34646 24.9881 8.66557 24.9881 9.05906V17.8953C24.9881 18.2888 25.3072 18.6079 25.7007 18.6079H34.5369C34.9304 18.6079 35.2495 18.2888 35.2495 17.8953V9.05906C35.2495 8.66557 34.9304 8.34646 34.5369 8.34646ZM33.8243 17.1827H26.4133V9.77166H33.8243V17.1827ZM19.9999 15.0028C19.6073 15.0028 19.2873 15.3221 19.2873 15.7154V25.3776C19.2856 26.3043 18.6899 27.0958 17.8621 27.3913V6.92127C17.8621 6.13541 17.2228 5.49607 16.4369 5.49607H3.3251C2.53925 5.49607 1.8999 6.13541 1.8999 6.92127V32.5748C1.8999 33.3607 2.53925 34 3.3251 34H16.4369C17.2228 34 17.8621 33.3607 17.8621 32.5748V28.8694C19.4275 28.5682 20.7125 27.1591 20.7125 25.3776V15.7154C20.7125 15.3221 20.3925 15.0028 19.9999 15.0028ZM16.4369 32.5748H3.3251V6.92127H16.4369L16.4376 27.5154H15.0117C15.0117 26.3366 14.0527 25.3776 12.8739 25.3776H6.88809C5.70931 25.3776 4.7503 26.3366 4.7503 27.5154V28.9406C4.7503 30.1193 5.70931 31.0784 6.88809 31.0784H12.8739C14.0527 31.0784 15.0117 30.1193 15.0117 28.9406H16.4377L16.4378 32.5747L16.4369 32.5748ZM13.5865 28.9406C13.5865 29.3335 13.2668 29.6532 12.8739 29.6532H6.88809C6.49516 29.6532 6.17549 29.3335 6.17549 28.9406V27.5154C6.17549 27.1224 6.49516 26.8028 6.88809 26.8028H12.8739C13.2668 26.8028 13.5865 27.1224 13.5865 27.5154V28.9406Z" fill="#161616"/>
<path fill-rule="evenodd" clip-rule="evenodd" d="M19.2876 14.1185C19.2876 12.4865 20.4484 10.9555 22.138 10.6269V6.92127C22.138 6.13542 22.7773 5.49607 23.5632 5.49607H36.675C37.4609 5.49607 38.1002 6.13542 38.1002 6.92127V32.5748C38.1002 33.3607 37.4609 34 36.675 34H23.5632C22.7773 34 22.138 33.3607 22.138 32.5748V12.1048C22.0697 12.1292 22.0029 12.1569 21.938 12.1879C21.2159 12.5318 20.7144 13.2683 20.7128 14.1185V25.3776C20.7128 27.1591 19.4278 28.5682 17.8624 28.8694V32.5748C17.8624 33.3607 17.2231 34 16.4372 34H3.32539C2.53954 34 1.9002 33.3607 1.9002 32.5748V6.92127C1.9002 6.13542 2.53954 5.49607 3.32539 5.49607H16.4372C17.2231 5.49607 17.8624 6.13542 17.8624 6.92127V27.3913C17.9307 27.3669 17.9975 27.3391 18.0624 27.3082C18.7845 26.9642 19.286 26.2278 19.2876 25.3776V14.1185ZM18.0624 27.084C18.6711 26.7561 19.0862 26.1132 19.0876 25.3772V14.1185C19.0876 12.4485 20.2377 10.8771 21.938 10.4658V6.92127C21.938 6.02496 22.6669 5.29607 23.5632 5.29607H36.675C37.5713 5.29607 38.3002 6.02496 38.3002 6.92127V32.5748C38.3002 33.4711 37.5713 34.2 36.675 34.2H23.5632C22.6669 34.2 21.938 33.4711 21.938 32.5748V12.412C21.3293 12.74 20.9142 13.3829 20.9128 14.1189V25.3776C20.9128 27.1968 19.6439 28.6489 18.0624 29.0307V32.5748C18.0624 33.4711 17.3335 34.2 16.4372 34.2H3.32539C2.42908 34.2 1.7002 33.4711 1.7002 32.5748V6.92127C1.7002 6.02496 2.42908 5.29607 3.32539 5.29607H16.4372C17.3335 5.29607 18.0624 6.02496 18.0624 6.92127V27.084ZM23.7632 32.3748H36.4759L36.475 7.12127H23.7632V32.3748ZM36.675 6.92127H23.5632V32.5748H36.675V6.92127ZM25.701 8.14647H34.5372C35.0412 8.14647 35.4498 8.55511 35.4498 9.05907V17.8953C35.4498 18.3992 35.0412 18.8079 34.5372 18.8079H25.701C25.197 18.8079 24.7884 18.3992 24.7884 17.8953V9.05907C24.7884 8.55511 25.197 8.14647 25.701 8.14647ZM26.6136 16.9827H33.6246V9.97166H26.6136V16.9827ZM3.52539 32.3748H16.2381L16.238 29.1406H15.2035C15.1018 30.3365 14.0961 31.2784 12.8742 31.2784H6.88838C5.59915 31.2784 4.55059 30.2298 4.55059 28.9406V27.5154C4.55059 26.2261 5.59915 25.1776 6.88838 25.1776H12.8742C14.0961 25.1776 15.1018 26.1194 15.2035 27.3154H16.2379L16.2372 7.12127H3.52539V32.3748ZM16.4372 6.92127H3.32539V32.5748H16.4372L16.438 28.9406H15.012C15.012 30.1193 14.053 31.0784 12.8742 31.0784H6.88838C5.7096 31.0784 4.75059 30.1193 4.75059 28.9406V27.5154C4.75059 26.3366 5.7096 25.3776 6.88838 25.3776H12.8742C14.053 25.3776 15.012 26.3366 15.012 27.5154H16.4379L16.4372 6.92127ZM12.8742 29.4532C13.1567 29.4532 13.3868 29.223 13.3868 28.9406V27.5154C13.3868 27.2329 13.1567 27.0028 12.8742 27.0028H6.88838C6.60592 27.0028 6.37579 27.2329 6.37579 27.5154V28.9406C6.37579 29.223 6.60591 29.4532 6.88838 29.4532H12.8742ZM25.701 8.34647H34.5372C34.9307 8.34647 35.2498 8.66557 35.2498 9.05907V17.8953C35.2498 18.2888 34.9307 18.6079 34.5372 18.6079H25.701C25.3075 18.6079 24.9884 18.2888 24.9884 17.8953V9.05907C24.9884 8.66557 25.3075 8.34647 25.701 8.34647ZM33.8246 17.1827V9.77166H26.4136V17.1827H33.8246ZM12.8742 29.6532C13.2671 29.6532 13.5868 29.3335 13.5868 28.9406V27.5154C13.5868 27.1224 13.2671 26.8028 12.8742 26.8028H6.88838C6.49546 26.8028 6.17579 27.1224 6.17579 27.5154V28.9406C6.17579 29.3335 6.49546 29.6532 6.88838 29.6532H12.8742Z" fill="#161616"/>
</svg>

<svg width="40" height="40" viewBox="0 0 40 40" fill="none" xmlns="http://www.w3.org/2000/svg"><path d="M36.675 5.496H23.563c-.786 0-1.425.64-1.425 1.425v3.706c-1.69.329-2.85 1.86-2.85 3.491v2.424a.714.714 0 0 0 1.424 0v-2.424a2.147 2.147 0 0 1 1.426-2.013v20.47c0 .786.639 1.425 1.425 1.425h13.112c.786 0 1.425-.64 1.425-1.425V6.92c0-.786-.64-1.425-1.425-1.425Zm0 27.079H23.563V6.92h13.112v25.654ZM34.537 8.346H25.7a.713.713 0 0 0-.713.713v8.836c0 .394.32.713.713.713h8.836c.393 0 .712-.32.712-.713V9.06a.713.713 0 0 0-.712-.713Zm-.713 8.837h-7.41V9.772h7.41v7.41ZM20 15.003a.713.713 0 0 0-.713.712v9.663a2.147 2.147 0 0 1-1.425 2.013V6.921c0-.786-.64-1.425-1.425-1.425H3.325c-.786 0-1.425.64-1.425 1.425v25.654C1.9 33.36 2.54 34 3.325 34h13.112c.786 0 1.425-.64 1.425-1.425v-3.706a3.553 3.553 0 0 0 2.85-3.491v-9.663a.713.713 0 0 0-.712-.712Zm-3.563 17.572H3.325V6.92h13.112v20.594h-1.425a2.14 2.14 0 0 0-2.138-2.137H6.888a2.14 2.14 0 0 0-2.138 2.137v1.426a2.14 2.14 0 0 0 2.138 2.137h5.986a2.14 2.14 0 0 0 2.138-2.137h1.426v3.634h-.001Zm-2.85-3.634c0 .393-.32.712-.713.712H6.888a.713.713 0 0 1-.713-.712v-1.426c0-.393.32-.712.713-.712h5.986c.393 0 .712.32.712.712v1.426Z" fill="#161616"/><path fill-rule="evenodd" clip-rule="evenodd" d="M19.288 14.118c0-1.632 1.16-3.162 2.85-3.491V6.92c0-.786.64-1.425 1.425-1.425h13.112c.786 0 1.425.64 1.425 1.425v25.654c0 .786-.64 1.425-1.425 1.425H23.563c-.786 0-1.425-.64-1.425-1.425v-20.47a2.146 2.146 0 0 0-1.425 2.014v11.259a3.553 3.553 0 0 1-2.85 3.491v3.706c0 .786-.64 1.425-1.426 1.425H3.325C2.54 34 1.9 33.36 1.9 32.575V6.92c0-.786.64-1.425 1.425-1.425h13.112c.786 0 1.425.64 1.425 1.425v20.47a2.146 2.146 0 0 0 1.425-2.014V14.12Zm-1.226 12.966a1.945 1.945 0 0 0 1.026-1.707V14.12c0-1.67 1.15-3.242 2.85-3.653V6.92c0-.896.729-1.625 1.625-1.625h13.112c.896 0 1.625.729 1.625 1.625v25.654c0 .896-.729 1.625-1.625 1.625H23.563a1.627 1.627 0 0 1-1.625-1.625V12.412a1.945 1.945 0 0 0-1.025 1.707v11.259a3.756 3.756 0 0 1-2.85 3.653v3.544c0 .896-.73 1.625-1.626 1.625H3.325A1.627 1.627 0 0 1 1.7 32.575V6.92c0-.896.73-1.625 1.625-1.625h13.112c.896 0 1.625.729 1.625 1.625v20.163Zm5.701 5.29h12.713l-.001-25.253H23.763v25.254ZM36.675 6.922H23.563v25.654h13.112V6.92ZM25.701 8.146h8.836c.504 0 .913.41.913.913v8.836a.913.913 0 0 1-.913.913h-8.836a.913.913 0 0 1-.913-.913V9.06c0-.504.409-.913.913-.913Zm.913 8.837h7.01V9.972h-7.01v7.01ZM3.525 32.375h12.713V29.14h-1.034a2.34 2.34 0 0 1-2.33 2.137H6.888a2.34 2.34 0 0 1-2.337-2.337v-1.426a2.34 2.34 0 0 1 2.337-2.337h5.986a2.34 2.34 0 0 1 2.33 2.137h1.034V7.121H3.524v25.254ZM16.437 6.92H3.325v25.654h13.112l.001-3.634h-1.426a2.14 2.14 0 0 1-2.138 2.137H6.888a2.14 2.14 0 0 1-2.137-2.137v-1.426a2.14 2.14 0 0 1 2.137-2.137h5.986a2.14 2.14 0 0 1 2.138 2.137h1.426V6.921Zm-3.563 22.532c.283 0 .513-.23.513-.512v-1.426a.513.513 0 0 0-.513-.512H6.888a.513.513 0 0 0-.512.512v1.426c0 .282.23.512.512.512h5.986ZM25.701 8.346h8.836c.394 0 .713.32.713.713v8.836c0 .394-.32.713-.713.713h-8.836a.713.713 0 0 1-.713-.713V9.06c0-.393.32-.713.713-.713Zm8.124 8.837V9.772h-7.411v7.41h7.41Zm-20.95 12.47c.392 0 .712-.32.712-.712v-1.426a.713.713 0 0 0-.713-.712H6.888a.713.713 0 0 0-.712.712v1.426c0 .393.32.712.712.712h5.986Z" fill="#161616"/></svg>
